X: 48
T: Missa Mi mi / Kyrie
N: Derived from Ock1010a-Missa_Mi_mi-Kyrie.krn
C: Johannes Ockeghem
%%abc-version 2.0
%%abcx-abcm2ps-target-version 5.9.1 (29 Sep 2008)
%%abc-creator hum2abc beta
%%abcx-conversion-date 2019/02/17 07:26:15
%%abc-edited-by Jesse Rodin
%%abc-edited-by Will Watson 22/1/2012
%%abcx-initial-encoding-date 2012/01/22/
%%humdrum-veritas 2779061529
%%humdrum-veritas-data 1071474054
%%linebreak <none>
%%barnumbers 0
L: 1/4
M: 3/1
Q: 1/2=120
%%staves [1 2 3 4]
V: 1 clef=treble
V: 2 clef=treble-8
V: 3 clef=treble-8
V: 4 clef=bass
K: C
[V:1] E8E4 | 
[V:2] B6A2A2c2 | 
[V:3] E12 | 
[V:4] E,6A,,2A,,4 | 
[V:1] E4D6CD | 
[V:2] B2G2z2F2A2B2 | 
[V:3] G4A6G2 | 
[V:4] E,4F,6E,2 | 
[V:1] E4z4E4 | 
[V:2] c4C2D2E3F | 
[V:3] G4A2G2c4 | 
[V:4] C,6B,,2A,,4 | 
[V:1] E2D4G4F2 | 
[V:2] G4E4D2d2 | 
[V:3] B4G4A4 | 
[V:4] G,,4z4D,4 | 
[V:1] G4E2D2F4 | 
[V:2] c2B4A2F4 | 
[V:3] G6A4B2 | 
[V:4] E,2G,4F,2D,4 | 
[V:1] E3DB,6C2- | 
[V:2] G4z4G4 | 
[V:3] c4z4z4 | 
[V:4] C,3D,E,2E,3D,C,B,, | 
[V:1] C2D2E2D4B,2 | 
[V:2] A2B2E2F2D4 | 
[V:3] z4z4^G4 | 
[V:4] A,,2G,,2C,2D,2B,,4 | 
[V:1] ^C4z2=C2D2F2 | 
[V:2] z2A4G2A2B2 | 
[V:3] A3GF2E2F2D2 | 
[V:4] A,,4z4z4 | 
[V:1] E4D2F2E2G2- | 
[V:2] c4d2c3BG2- | 
[V:3] C2G3FA3GE2 | 
[V:4] C,4B,,2A,,2C,4 | 
[V:1] GEE4D2E4 ||  
[V:2] G2c2BA2GA4 ||  
[V:3] G2A2F4E4 ||  
[V:4] C,4D,4A,,4 ||  
[V:1] [M:2/1]G6F2 | 
[V:2] [M:2/1]E8 | 
[V:3] [M:2/1]B8- | 
[V:4] [M:2/1]z8 | 
[V:1] D8 | 
[V:2] G8 | 
[V:3] B8 | 
[V:4] z8 | 
[V:1] F4E4- | 
[V:2] D4C4- | 
[V:3] A8 | 
[V:4] z8 | 
[V:1] E2C2E4 | 
[V:2] C4C4 | 
[V:3] c8 | 
[V:4] z8 | 
[V:1] D4G4- | 
[V:2] G4E4 | 
[V:3] B4G4 | 
[V:4] z8 | 
[V:1] G4^F4 | 
[V:2] D8 | 
[V:3] A8 | 
[V:4] z8 | 
[V:1] G8 | 
[V:2] d8- | 
[V:3] G8 | 
[V:4] G,8 | 
[V:1] A4G4 | 
[V:2] d8 | 
[V:3] z8 | 
[V:4] F,4G,4 | 
[V:1] F4E4 | 
[V:2] c6B2 | 
[V:3] z8 | 
[V:4] A,6G,2 | 
[V:1] G4F4 | 
[V:2] c4d4- | 
[V:3] G4A4 | 
[V:4] E,4D,4 | 
[V:1] D8 | 
[V:2] d2B4G2 | 
[V:3] B8 | 
[V:4] G,8 | 
[V:1] z4G4- | 
[V:2] G4z4 | 
[V:3] c8 | 
[V:4] C,8 | 
[V:1] G4F4 | 
[V:2] d4c4 | 
[V:3] B4c4- | 
[V:4] G,4A,4 | 
[V:1] E4A4- | 
[V:2] A4e4- | 
[V:3] c4A4 | 
[V:4] C8 | 
[V:1] A4^G4 | 
[V:2] e4z4 | 
[V:3] E8 | 
[V:4] B,8 | 
[V:1] A8 | 
[V:2] e8 | 
[V:3] z4A4- | 
[V:4] A,8 | 
[V:1] F4A4- | 
[V:2] d8 | 
[V:3] A4B4 | 
[V:4] D,8 | 
[V:1] A2G2E4- | 
[V:2] e4c4 | 
[V:3] c6A2 | 
[V:4] C,8 | 
[V:1] E2D2G4 | 
[V:2] z4B4 | 
[V:3] B4G4 | 
[V:4] G,8 | 
[V:1] A6F2 | 
[V:2] c2A4d2 | 
[V:3] z4D4 | 
[V:4] F,8 | 
[V:1] E3DF4 | 
[V:2] B2c2d4 | 
[V:3] E4D2F2- | 
[V:4] G,4A,4- | 
[V:1] A2G4E2- | 
[V:2] c2e4c2 | 
[V:3] F2E2C4 | 
[V:4] A,2B,2C4 | 
[V:1] E2D4G2- | 
[V:2] G4d4 | 
[V:3] G8 | 
[V:4] B,2G,2B,4 | 
[V:1] G2^F2F2E2 | 
[V:2] z4d4 | 
[V:3] D8 | 
[V:4] A,8 | 
[V:1] G8 ||  
[V:2] d8 ||  
[V:3] G8 ||  
[V:4] G,8 ||  
[V:1] [M:3/1]G8G4 | 
[V:2] [M:3/1]c12- | 
[V:3] [M:3/1]G6C2C4 | 
[V:4] [M:3/1]C,8E,4 | 
[V:1] G4F6E2 | 
[V:2] c4d8 | 
[V:3] G4A4B4 | 
[V:4] E,4D,8 | 
[V:1] E8D4 | 
[V:2] G8B4 | 
[V:3] c8G4 | 
[V:4] C,8B,,4 | 
[V:1] C4A,8 | 
[V:2] c4e8 | 
[V:3] A4c8 | 
[V:4] A,,12- | 
[V:1] A4G2G4FG | 
[V:2] E4z4G4 | 
[V:3] c4B8 | 
[V:4] A,,4E,8 | 
[V:1] A4z4G4 | 
[V:2] c4A2d4c2 | 
[V:3] A4F2D2E4 | 
[V:4] A,,4z4z4 | 
[V:1] F4D2C2E2F2 | 
[V:2] d4B2c4A2 | 
[V:3] D4z4z4 | 
[V:4] z12 | 
[V:1] G3EF2C2D4 | 
[V:2] G2c2d2c4B2 | 
[V:3] z12 | 
[V:4] z12 | 
[V:1] C8z4 | 
[V:2] c6B2G4 | 
[V:3] C6D2E4- | 
[V:4] z12 | 
[V:1] C6D2E4 | 
[V:2] A8G4 | 
[V:3] E4E4z4 | 
[V:4] A,,8C,4 | 
[V:1] E4F6E2 | 
[V:2] c4B2A4F2 | 
[V:3] G4F6D2 | 
[V:4] C,4D,8 | 
[V:1] E4D2D4CD | 
[V:2] G4A8 | 
[V:3] C4F8 | 
[V:4] z4D,8 | 
[V:1] E3FG2A3GG2 | 
[V:2] A4d2c2e4 | 
[V:3] E4z4z4 | 
[V:4] A,,4B,,2A,,2C,4 | 
[V:1] F2A4G3FED | 
[V:2] d3cd2e3dB2 | 
[V:3] z12 | 
[V:4] D,4F,2E,2G,4 | 
[V:1] C2F2G2E4D2 | 
[V:2] A2c4B4A2 | 
[V:3] z4z4D4 | 
[V:4] A,4E,4F,4 | 
[V:1] E12 |]  
[V:2] B12 |]  
[V:3] G12 |]  
[V:4] E,12 |]  



